X: 1
T: Gan Ainm
M: 6/8
L: 1/8
R: jig
K: Dmaj
|:c|ded dfa|gfe fdB|cBc def|(3efg a b2c|
dfa Ace|GBd cAF|GAB ABc|ded d2:|
|:e|fdB cde|fdb a(3Bcd|fdB AdF|EFE D(3EFG|
FD GD AD|dAd c(3Bcd|fdB ABc|ded d2:|
